www/assets/images/test_icons/flags/SI.svg

<svg fill="none" height="15" viewBox="0 0 21 15" width="21" xmlns="http://www.w3.org/2000/svg" xmlns:xlink="http://www.w3.org/1999/xlink"><mask id="a" height="15" maskUnits="userSpaceOnUse" width="21" x="0" y="0"><path d="m19 0h-17c-1.10457 0-2 .89543-2 2v11c0 1.1046.89543 2 2 2h17c1.1046 0 2-.8954 2-2v-11c0-1.10457-.8954-2-2-2z" fill="#fff"/></mask><g mask="url(#a)"><path d="m19 0h-17c-1.10457 0-2 .89543-2 2v11c0 1.1046.89543 2 2 2h17c1.1046 0 2-.8954 2-2v-11c0-1.10457-.8954-2-2-2z" fill="#0268ae"/><path clip-rule="evenodd" d="m0 10h21v5h-21z" fill="#ef1f28" fill-rule="evenodd"/><path clip-rule="evenodd" d="m0 0h21v5h-21z" fill="#fff" fill-rule="evenodd"/><path d="m6.5 3h-2c-.55228 0-1 .44772-1 1v2.5c0 .55228.44772 1 1 1h2c.55228 0 1-.44772 1-1v-2.5c0-.55228-.44772-1-1-1z" fill="#ef1f28"/><path d="m6 3h-1c-.55228 0-1 .44772-1 1v2c0 .55228.44772 1 1 1h1c.55228 0 1-.44772 1-1v-2c0-.55228-.44772-1-1-1z" fill="#0268ae"/><path clip-rule="evenodd" d="m5 4h1v1h-1z" fill="#ffe200" fill-rule="evenodd"/><path clip-rule="evenodd" d="m4 6 1.5-.5 1.5.5-1 1h-1z" fill="#fff" fill-rule="evenodd"/><path d="m19 .5h-17c-.82843 0-1.5.67157-1.5 1.5v11c0 .8284.67157 1.5 1.5 1.5h17c.8284 0 1.5-.6716 1.5-1.5v-11c0-.82843-.6716-1.5-1.5-1.5z" stroke="#000" stroke-opacity=".1"/></g></svg>

<svg width="21" height="15" viewBox="0 0 21 15" fill="none" xmlns="http://www.w3.org/2000/svg">
<mask id="mask0_3_45" style="mask-type:alpha" maskUnits="userSpaceOnUse" x="0" y="0" width="21" height="15">
<path d="M19 0H2C0.89543 0 0 0.89543 0 2V13C0 14.1046 0.89543 15 2 15H19C20.1046 15 21 14.1046 21 13V2C21 0.89543 20.1046 0 19 0Z" fill="white"/>
</mask>
<g mask="url(#mask0_3_45)">
<path d="M19 0H2C0.89543 0 0 0.89543 0 2V13C0 14.1046 0.89543 15 2 15H19C20.1046 15 21 14.1046 21 13V2C21 0.89543 20.1046 0 19 0Z" fill="#0268AE"/>
<path fill-rule="evenodd" clip-rule="evenodd" d="M0 10H21V15H0V10Z" fill="#EF1F28"/>
<path fill-rule="evenodd" clip-rule="evenodd" d="M0 0H21V5H0V0Z" fill="white"/>
<path d="M6.5 3H4.5C3.94772 3 3.5 3.44772 3.5 4V6.5C3.5 7.05228 3.94772 7.5 4.5 7.5H6.5C7.05228 7.5 7.5 7.05228 7.5 6.5V4C7.5 3.44772 7.05228 3 6.5 3Z" fill="#EF1F28"/>
<path d="M6 3H5C4.44772 3 4 3.44772 4 4V6C4 6.55228 4.44772 7 5 7H6C6.55228 7 7 6.55228 7 6V4C7 3.44772 6.55228 3 6 3Z" fill="#0268AE"/>
<path fill-rule="evenodd" clip-rule="evenodd" d="M5 4H6V5H5V4Z" fill="#FFE200"/>
<path fill-rule="evenodd" clip-rule="evenodd" d="M4 6L5.5 5.5L7 6L6 7H5L4 6Z" fill="white"/>
<path d="M19 0.5H2C1.17157 0.5 0.5 1.17157 0.5 2V13C0.5 13.8284 1.17157 14.5 2 14.5H19C19.8284 14.5 20.5 13.8284 20.5 13V2C20.5 1.17157 19.8284 0.5 19 0.5Z" stroke="black" stroke-opacity="0.1"/>
</g>
</svg>
